X: 850
T: Alborada De Víctor Sáenz
R: waltz
M: 3/4
K: Dmajor
d2cd Ad|FA dc dA|B2AB GA|Bc dc dB|A2FA DF|AF dc dA|
B2 AB GA|Bc dc dB|A2 FA D2|DF AF AF|G2FG EG|CE GF GE|
F2EF D2|DE FE FD|E2CD EF|GA BG EC|D4D2|D4A2:|
d2cd cd|AD AF A2|d2cd cd|AB AF AB/c/|d2Ad Ad|B3A Bc|
d2cB AG|FG AF DF|G2FG BG|E3CE2|B2BA AF|D4F2|
G2FG BG|E3CE2|B2BA AF|D3F DF|DF~F2 DF|AG EG~G2|
EG ~G2EG|AF DF ~F2|DF ~F2 DF|AG EG ~G2|EG ~G2EG|A3d3|
c2A3c|B2G3B|A2F3A|GF EF G/F/E|AF DE F/E/D|ED CD EC|D4A2|
|:d4A2|B2G2B2|=c4B2|A2F2DE|F2EF GF|E2CE EF|GE AG FE|1 F2DF AF:|2 D3E F/E/D|
|:GF EF G/F/E|AF DE F/E/D|ED CD EC|1 D3E F/E/D:|2 D4D2|D4A2|

